X:17
T:Off She Goes
C:trad
Q:1/4=160
M:6/8
L:1/8
Z:abc2nwc
K:D
|:A|F2A G2B|ABc d2A|F2A G2B|AFD E2A|
F2A G2B|ABc d2e|fed g2f|edc d2:|
|:g|faf def|gbg efg|faf def|ecA A2g|
faf def|gbg efg|fed g2f|edc d2:|


